X:101
T:Wink and She'll Follow You
R:slip jig
H:See also #63, #71
Z:id:hn-slipjig-101
M:9/8
L:1/8
K:Ddor
D2A ABG ABc | ~E3 AGE G2E | D2A ABG ABc |1 BAG AGE G2E :|2 BAG AGE GED ||
c3 e2c ABc | ~B3 dBG GAB | cAc e2c ABc | BAG AGE GED |
c3 e2c ABc | ~B3 dBG GB/c/d | gag gdB AdB | cBA BAG AGE ||

